files/resources/svgs/general/s-chat-bubble-bottom-center.svg

<svg width="24" height="24" viewBox="0 0 24 24" fill="none" xmlns="http://www.w3.org/2000/svg">
<path fill-rule="evenodd" clip-rule="evenodd" d="M4.84836 2.771C7.18302 2.42773 9.57113 2.25 12.0003 2.25C14.4292 2.25 16.8171 2.4277 19.1516 2.77091C21.1299 3.06177 22.5 4.79445 22.5 6.74056V12.7595C22.5 14.7056 21.1299 16.4382 19.1516 16.7291C18.0054 16.8976 16.8464 17.0262 15.6759 17.1135C15.5514 17.1228 15.4431 17.1875 15.379 17.2835L12.624 21.416C12.4849 21.6247 12.2508 21.75 12 21.75C11.7492 21.75 11.5151 21.6247 11.376 21.416L8.62092 17.2835C8.5569 17.1874 8.44853 17.1227 8.32408 17.1134C7.15358 17.0261 5.99452 16.8975 4.84836 16.729C2.87004 16.4381 1.5 14.7054 1.5 12.7593V6.74064C1.5 4.79455 2.87004 3.06188 4.84836 2.771Z" fill="#0F172A"/>
</svg>

<svg xmlns="http://www.w3.org/2000/svg" viewBox="0 0 24 24" fill="currentColor" aria-hidden="true">
  <path fill-rule="evenodd" d="M4.848 2.771A49.144 49.144 0 0112 2.25c2.43 0 4.817.178 7.152.52 1.978.292 3.348 2.024 3.348 3.97v6.02c0 1.946-1.37 3.678-3.348 3.97a48.901 48.901 0 01-3.476.383.39.39 0 00-.297.17l-2.755 4.133a.75.75 0 01-1.248 0l-2.755-4.133a.39.39 0 00-.297-.17 48.9 48.9 0 01-3.476-.384c-1.978-.29-3.348-2.024-3.348-3.97V6.741c0-1.946 1.37-3.68 3.348-3.97z" clip-rule="evenodd"/>
</svg>
